X: 12192
T: Factory Girl, The
R: waltz
M: 3/4
K: Gmajor
Bd|e3e dB|d2 d2 BB|A2 B3A|G2 E2 d2|
e3e dB|d2 d2 B2|A2 G3A|B4 Bd|
e3e dB|d2 d2 B2|A2 B3A|G2 E2 DD|
G2 B2 d2|e2 d2 B2|A2 G3A|G4||

